static/assets/img/icons/theme/navigation/waiting.svg

<svg height="24" viewBox="0 0 24 24" width="24" xmlns="http://www.w3.org/2000/svg"><g fill="none" fill-rule="evenodd"><path d="m0 0h24v24h-24z" opacity="0"/><path d="m19.5 10.5h1.5c.8284271 0 1.5.6715729 1.5 1.5s-.6715729 1.5-1.5 1.5h-1.5c-.8284271 0-1.5-.6715729-1.5-1.5s.6715729-1.5 1.5-1.5zm-3.4393398-4.62867966 1.0606601-1.06066017c.5857865-.58578644 1.5355339-.58578644 2.1213204 0 .5857864.58578644.5857864 1.53553391 0 2.12132035l-1.0606602 1.06066017c-.5857864.58578643-1.5355339.58578643-2.1213203 0-.5857865-.58578644-.5857865-1.53553391 0-2.12132035zm0 12.31066016c-.5857865-.5857864-.5857865-1.5355339 0-2.1213203.5857864-.5857865 1.5355339-.5857865 2.1213203 0l1.0606602 1.0606601c.5857864.5857865.5857864 1.5355339 0 2.1213204-.5857865.5857864-1.5355339.5857864-2.1213204 0zm-13.0606602-7.6819805h1.5c.82842712 0 1.5.6715729 1.5 1.5s-.67157288 1.5-1.5 1.5h-1.5c-.82842712 0-1.5-.6715729-1.5-1.5s.67157288-1.5 1.5-1.5zm9-9c.8284271 0 1.5.67157288 1.5 1.5v1.5c0 .82842712-.6715729 1.5-1.5 1.5s-1.5-.67157288-1.5-1.5v-1.5c0-.82842712.6715729-1.5 1.5-1.5zm0 16.5c.8284271 0 1.5.6715729 1.5 1.5v1.5c0 .8284271-.6715729 1.5-1.5 1.5s-1.5-.6715729-1.5-1.5v-1.5c0-.8284271.6715729-1.5 1.5-1.5zm-7.18933983-13.18933983c.58578644-.58578644 1.53553391-.58578644 2.12132035 0l1.06066017 1.06066017c.58578643.58578644.58578643 1.53553391 0 2.12132035-.58578644.58578643-1.53553391.58578643-2.12132035 0l-1.06066017-1.06066017c-.58578644-.58578644-.58578644-1.53553391 0-2.12132035zm0 14.43198053c-.58578644-.5857865-.58578644-1.5355339 0-2.1213204l1.06066017-1.0606601c.58578644-.5857865 1.53553391-.5857865 2.12132035 0 .58578643.5857864.58578643 1.5355339 0 2.1213203l-1.06066017 1.0606602c-.58578644.5857864-1.53553391.5857864-2.12132035 0z" fill="#000" fill-rule="nonzero" opacity=".3"/></g></svg>

<svg width="24px" height="24px" viewBox="0 0 24 24" version="1.1" xmlns="http://www.w3.org/2000/svg" xmlns:xlink="http://www.w3.org/1999/xlink">
    <title>Icon For Waiting</title>
    <g stroke="none" stroke-width="1" fill="none" fill-rule="evenodd">
        <rect opacity="0" x="0" y="0" width="24" height="24"></rect>
        <path d="M19.5,10.5 L21,10.5 C21.8284271,10.5 22.5,11.1715729 22.5,12 C22.5,12.8284271 21.8284271,13.5 21,13.5 L19.5,13.5 C18.6715729,13.5 18,12.8284271 18,12 C18,11.1715729 18.6715729,10.5 19.5,10.5 Z M16.0606602,5.87132034 L17.1213203,4.81066017 C17.7071068,4.22487373 18.6568542,4.22487373 19.2426407,4.81066017 C19.8284271,5.39644661 19.8284271,6.34619408 19.2426407,6.93198052 L18.1819805,7.99264069 C17.5961941,8.57842712 16.6464466,8.57842712 16.0606602,7.99264069 C15.4748737,7.40685425 15.4748737,6.45710678 16.0606602,5.87132034 Z M16.0606602,18.1819805 C15.4748737,17.5961941 15.4748737,16.6464466 16.0606602,16.0606602 C16.6464466,15.4748737 17.5961941,15.4748737 18.1819805,16.0606602 L19.2426407,17.1213203 C19.8284271,17.7071068 19.8284271,18.6568542 19.2426407,19.2426407 C18.6568542,19.8284271 17.7071068,19.8284271 17.1213203,19.2426407 L16.0606602,18.1819805 Z M3,10.5 L4.5,10.5 C5.32842712,10.5 6,11.1715729 6,12 C6,12.8284271 5.32842712,13.5 4.5,13.5 L3,13.5 C2.17157288,13.5 1.5,12.8284271 1.5,12 C1.5,11.1715729 2.17157288,10.5 3,10.5 Z M12,1.5 C12.8284271,1.5 13.5,2.17157288 13.5,3 L13.5,4.5 C13.5,5.32842712 12.8284271,6 12,6 C11.1715729,6 10.5,5.32842712 10.5,4.5 L10.5,3 C10.5,2.17157288 11.1715729,1.5 12,1.5 Z M12,18 C12.8284271,18 13.5,18.6715729 13.5,19.5 L13.5,21 C13.5,21.8284271 12.8284271,22.5 12,22.5 C11.1715729,22.5 10.5,21.8284271 10.5,21 L10.5,19.5 C10.5,18.6715729 11.1715729,18 12,18 Z M4.81066017,4.81066017 C5.39644661,4.22487373 6.34619408,4.22487373 6.93198052,4.81066017 L7.99264069,5.87132034 C8.57842712,6.45710678 8.57842712,7.40685425 7.99264069,7.99264069 C7.40685425,8.57842712 6.45710678,8.57842712 5.87132034,7.99264069 L4.81066017,6.93198052 C4.22487373,6.34619408 4.22487373,5.39644661 4.81066017,4.81066017 Z M4.81066017,19.2426407 C4.22487373,18.6568542 4.22487373,17.7071068 4.81066017,17.1213203 L5.87132034,16.0606602 C6.45710678,15.4748737 7.40685425,15.4748737 7.99264069,16.0606602 C8.57842712,16.6464466 8.57842712,17.5961941 7.99264069,18.1819805 L6.93198052,19.2426407 C6.34619408,19.8284271 5.39644661,19.8284271 4.81066017,19.2426407 Z" fill="#000000" fill-rule="nonzero" opacity="0.3"></path>
    </g>
</svg>
